frontend/public/svg/hand gestures/rotate.svg

<svg width="142" height="142" viewBox="0 0 142 142" fill="none" xmlns="http://www.w3.org/2000/svg">
<g clip-path="url(#clip0)">
<path d="M138.562 63.723C137.927 62.2419 136.971 60.92 135.764 59.8522C134.557 58.7845 133.129 57.9974 131.582 57.5475C129.898 57.0584 128.127 56.9428 126.395 57.2089C124.661 57.4749 123.007 58.1162 121.547 59.0879C121.201 59.3143 120.862 59.5519 120.508 59.7994L120.331 59.9235C119.414 57.9178 118.043 56.1532 116.326 54.7696C114.609 53.386 112.593 52.4213 110.439 51.9522C108.611 51.5945 106.725 51.6855 104.94 52.2174C103.156 52.7493 101.527 53.7063 100.193 55.0061C98.0112 51.8308 95.796 50.1204 93.2448 49.6347C90.5906 49.1293 87.6443 49.9838 84.2464 52.2462L84.2228 52.0493C84.1769 51.6687 84.1421 51.3897 84.1237 51.1101C83.9655 48.7401 83.8211 46.3681 83.6761 43.9968C83.3551 38.731 83.0243 33.2859 82.5334 27.9427C82.0142 22.2982 81.1551 15.8077 77.5065 10.1599C75.8 7.51615 73.306 5.9475 70.6589 5.85627C68.0119 5.76504 65.4678 7.11513 63.5631 9.66303C62.5788 10.9535 61.9195 12.4617 61.6403 14.0605C61.2977 16.3971 61.1287 18.792 60.9653 21.1083C60.8872 22.2175 60.8093 23.3273 60.7128 24.4339C59.5314 37.9656 60.1169 51.7107 60.6827 65.0035L60.7173 65.839C60.7698 67.0696 60.7561 68.2989 60.7423 69.6005C60.7377 70.0231 60.733 70.4504 60.7304 70.8862C60.5716 70.7924 60.4184 70.6893 60.2712 70.5777C60.1228 70.4596 59.9828 70.3297 59.8424 70.2004C59.6528 70.0179 59.4522 69.8466 59.2418 69.6884C52.5216 64.8387 45.386 63.1454 38.0278 64.6602C36.4537 64.9503 34.977 65.629 33.7318 66.6345C32.4865 67.6406 31.5121 68.9408 30.8971 70.4189C30.2817 71.9626 30.0614 73.6356 30.2562 75.2863C30.451 76.9363 31.0551 78.5122 32.0131 79.8702C32.8052 80.959 33.7143 81.9573 34.7243 82.8473C35.2934 83.3875 35.8821 83.946 36.4065 84.5282C37.351 85.5784 38.3453 86.6193 39.3068 87.6274C41.7906 90.0808 44.053 92.7495 46.0673 95.6013C48.1929 98.967 50.125 102.451 51.8541 106.037C52.8203 107.948 53.8192 109.923 54.866 111.83L55.0355 112.138C57.5296 116.68 60.1062 121.377 62.9331 125.816C64.3286 127.89 66.0587 129.719 68.0526 131.227C72.0806 134.341 76.5653 136.813 81.3481 138.558C86.1131 140.396 91.1767 141.338 96.2843 141.332C102.171 141.277 107.999 140.161 113.49 138.038C117.237 136.636 120.675 134.195 124.159 131.606C130.161 127.143 134.245 120.568 137.013 110.908C140.401 99.2072 141.837 87.0275 141.262 74.8597C141.029 71.0168 140.115 67.2462 138.562 63.723ZM72.3162 124.862C71.14 124.069 70.1155 123.073 69.2892 121.92C67.2545 118.978 65.3689 115.936 63.6394 112.805C61.039 107.978 58.5047 102.977 55.8944 97.5126C51.7549 88.8581 46.5662 82.1884 40.0336 77.1227C39.9555 77.065 39.881 77.002 39.8109 76.9344C39.614 76.7375 39.4173 76.5406 39.2145 76.3437C37.8119 74.9818 36.4867 73.696 37.3189 71.5905C38.1137 69.5854 40.0676 69.2519 42.1193 69.2519C42.2244 69.2519 42.3306 69.2519 42.4356 69.2519C48.5396 69.3438 53.3807 71.45 56.8206 75.5108C58.1681 77.1011 58.9353 79.2519 59.6776 81.3358C60.4495 83.5017 61.3414 84.9168 63.2186 84.8715C64.9415 84.819 66.2812 83.4072 66.7144 81.1861C66.8482 80.388 66.8955 79.5781 66.8555 78.7702C66.761 75.2364 66.6408 71.7034 66.5201 68.1703C66.2635 60.6165 65.9949 52.8054 65.9949 45.1256C65.9949 37.7589 66.3652 30.2649 66.7242 23.0183C66.8246 20.9753 66.9231 18.9329 67.0189 16.8913C67.1298 14.4701 67.7041 11.8808 71.0882 10.9685C73.197 12.4781 74.5097 14.7995 75.0991 18.0688C75.9562 22.6842 76.5555 27.3438 76.8948 32.0258C77.37 39.0119 77.7238 46.1259 78.0657 53.0056C78.22 56.0926 78.3768 59.1794 78.5383 62.2659C78.621 63.8247 79.003 65.6737 81.2385 66.1383C83.2921 66.5603 84.3666 64.9326 85.2178 63.108C85.3767 62.7671 85.5348 62.4245 85.6924 62.0802C86.5193 60.0859 87.5623 58.1887 88.8041 56.4226C89.8384 55.0712 91.1439 54.4154 92.3975 54.6268C93.7062 54.848 94.7846 55.9664 95.3563 57.6971C95.7396 59.0777 95.9503 60.5007 95.9831 61.9332C96.012 62.3723 96.0402 62.8107 96.0783 63.2459C96.1085 63.7859 96.0934 64.3276 96.0317 64.865C96.0021 65.2096 95.9732 65.5548 95.966 65.8981C95.9273 67.575 96.7425 68.6415 98.2632 68.9008C99.904 69.1824 101.049 68.4932 101.498 66.9659C101.586 66.6653 101.659 66.3595 101.731 66.0543C101.828 65.6049 101.953 65.162 102.105 64.7285C102.294 64.227 102.474 63.7197 102.654 63.2123C103.137 61.7225 103.743 60.2753 104.465 58.8857C105.696 56.6811 107.189 56.143 109.781 56.9667C112.562 57.8488 114.31 59.6904 114.825 62.2928C115.008 63.3558 115.116 64.4306 115.147 65.5089C115.18 66.5537 115.28 67.596 115.445 68.6284C115.653 69.8709 116.259 71.0122 117.172 71.8799C117.401 72.0814 117.672 72.2317 117.964 72.319C118.257 72.4056 118.565 72.4286 118.867 72.3853C119.38 72.2704 119.865 72.0499 120.289 71.7375C120.712 71.4257 121.066 71.0293 121.329 70.5732C121.776 69.9089 122.187 69.2086 122.585 68.5313C123.172 67.4759 123.835 66.4645 124.57 65.5062C125.989 63.7538 127.623 62.8933 129.156 63.0778C130.688 63.2622 132.048 64.4784 132.996 66.4986C135.348 71.6975 136.217 77.4463 135.504 83.1086C134.676 90.9465 133.444 98.6034 132.464 104.399C131.528 109.93 129.134 115.454 125.348 120.818C121.863 125.755 116.724 129.233 109.638 131.45C96.579 135.548 84.3705 133.391 72.3162 124.862Z" fill="black"/>
<path d="M36.8818 48.2942C36.6941 47.0564 35.7714 45.896 34.0597 44.7454L33.9218 44.6529C30.9902 42.6839 28.0631 40.7085 25.1411 38.7268C23.2469 37.4397 22.0329 36.973 21.072 37.1686C20.7848 37.234 20.5144 37.3587 20.2781 37.5345C20.0419 37.7104 19.845 37.9336 19.7 38.1899C18.5337 40.0001 19.7442 41.5458 21.9193 43.3094C23.0154 44.198 24.1311 45.0572 25.4228 46.0522L26.6166 46.9711C23.0844 46.8876 19.5971 46.1618 16.3248 44.8294C11.202 42.6438 8.37565 38.4945 7.92343 32.4975C7.41674 25.8061 9.9672 19.6024 15.5014 14.0544C20.3282 9.21917 26.4012 7.08673 32.6076 8.04695C35.7308 8.54951 38.6919 9.77975 41.2518 11.6382C43.8117 13.4967 45.8986 15.9313 47.3437 18.7453C47.8839 19.7908 48.3501 20.9046 48.8004 21.9817C49.076 22.6426 49.353 23.3042 49.6477 23.9559C50.0592 24.8636 50.9103 26.7526 52.9909 26.345C54.6107 26.026 55.4307 24.8353 55.4989 22.699C55.5164 22.1147 55.4723 21.5302 55.3675 20.9551C54.2806 14.9227 50.376 9.21457 44.6547 5.2949C38.9334 1.37525 32.2094 -0.199318 26.1967 0.967651C13.8976 3.34884 5.73207 11.1029 1.92794 24.0137C-0.0233555 30.6335 0.828622 37.4942 4.2639 42.8381C7.74642 48.2549 13.4251 51.6645 20.6861 52.6989L25.9176 53.4393C25.4759 53.9328 25.0533 54.4027 24.6444 54.8562C23.5023 56.1249 22.516 57.2191 21.5341 58.3663C19.59 60.634 19.1056 62.754 20.2778 63.8987C20.776 64.3685 21.4395 64.6225 22.1241 64.6055C23.1965 64.6055 24.5072 64.0679 25.8474 62.708C29.2599 59.2939 32.497 55.709 35.5467 51.967C36.6178 50.6366 37.0551 49.4336 36.8818 48.2942Z" fill="black"/>
</g>
<defs>
<clipPath id="clip0">
<rect width="141.113" height="141.113" fill="white" transform="translate(0.65979 0.447388)"/>
</clipPath>
</defs>
</svg>

<svg xmlns="http://www.w3.org/2000/svg" width="142" height="142" fill="none" viewBox="0 0 142 142"><g fill="#000" clip-path="url(#a)"><path d="M138.562 63.723a10.9 10.9 0 0 0-6.98-6.175 12.04 12.04 0 0 0-10.035 1.54c-.346.226-.685.464-1.039.711l-.177.124a14.2 14.2 0 0 0-9.892-7.97 11.51 11.51 0 0 0-10.246 3.053c-2.182-3.175-4.397-4.886-6.948-5.371-2.654-.506-5.6.349-8.999 2.611l-.023-.197c-.046-.38-.08-.66-.1-.939-.157-2.37-.302-4.742-.447-7.113-.32-5.266-.652-10.711-1.143-16.054-.519-5.645-1.378-12.135-5.026-17.783-1.707-2.644-4.201-4.212-6.848-4.304-2.647-.091-5.191 1.26-7.096 3.807a10.1 10.1 0 0 0-1.923 4.397c-.342 2.337-.511 4.732-.675 7.048-.078 1.11-.156 2.22-.252 3.326-1.182 13.532-.596 27.277-.03 40.57l.034.835c.053 1.23.04 2.46.025 3.761q-.007.633-.012 1.286a5 5 0 0 1-.459-.308c-.148-.118-.288-.248-.429-.378a7 7 0 0 0-.6-.512c-6.72-4.85-13.856-6.543-21.214-5.028a9.61 9.61 0 0 0-7.13 5.759 9.98 9.98 0 0 0 1.115 9.451 18.4 18.4 0 0 0 2.711 2.977c.57.54 1.158 1.099 1.683 1.681.944 1.05 1.938 2.091 2.9 3.1a59.3 59.3 0 0 1 6.76 7.973 105 105 0 0 1 5.787 10.436c.966 1.911 1.965 3.886 3.012 5.793l.17.308c2.494 4.542 5.07 9.239 7.897 13.678a22.6 22.6 0 0 0 5.12 5.411 49.4 49.4 0 0 0 13.295 7.331 41.4 41.4 0 0 0 14.936 2.774 49 49 0 0 0 17.206-3.294c3.747-1.402 7.185-3.843 10.669-6.432 6.002-4.463 10.086-11.038 12.854-20.698a110.8 110.8 0 0 0 4.249-36.048 32.5 32.5 0 0 0-2.7-11.137m-66.246 61.139a11.9 11.9 0 0 1-3.027-2.942 107 107 0 0 1-5.65-9.115 351 351 0 0 1-7.745-15.292c-4.14-8.655-9.328-15.325-15.86-20.39a2 2 0 0 1-.223-.189q-.294-.295-.596-.59c-1.403-1.362-2.728-2.648-1.896-4.753.795-2.006 2.749-2.34 4.8-2.34h.317c6.104.093 10.945 2.199 14.385 6.26 1.347 1.59 2.114 3.74 2.857 5.825.772 2.166 1.663 3.58 3.54 3.535 1.724-.052 3.063-1.464 3.496-3.685a11.3 11.3 0 0 0 .142-2.416c-.095-3.534-.215-7.067-.336-10.6-.257-7.553-.525-15.365-.525-23.044 0-7.367.37-14.861.73-22.108q.15-3.064.294-6.127c.11-2.42.685-5.01 4.07-5.922 2.108 1.51 3.42 3.83 4.01 7.1a127 127 0 0 1 1.796 13.957c.475 6.986.829 14.1 1.17 20.98q.232 4.63.473 9.26c.083 1.559.465 3.408 2.7 3.872 2.054.422 3.129-1.205 3.98-3.03q.238-.51.474-1.028a29.4 29.4 0 0 1 3.112-5.657c1.034-1.352 2.34-2.008 3.593-1.796 1.31.221 2.388 1.34 2.96 3.07a17.3 17.3 0 0 1 .626 4.236c.029.44.057.878.095 1.313a9.5 9.5 0 0 1-.046 1.619c-.03.345-.059.69-.066 1.033-.039 1.677.777 2.743 2.297 3.003 1.641.281 2.786-.408 3.235-1.935.088-.3.161-.606.233-.912q.146-.675.374-1.326a80 80 0 0 0 .549-1.516 28.4 28.4 0 0 1 1.811-4.326c1.231-2.205 2.724-2.743 5.316-1.92 2.781.883 4.529 2.724 5.044 5.327.183 1.063.291 2.138.322 3.216q.05 1.569.298 3.12a5.8 5.8 0 0 0 1.727 3.25 2.12 2.12 0 0 0 1.695.506 3.8 3.8 0 0 0 2.462-1.812c.447-.664.858-1.364 1.256-2.042a25 25 0 0 1 1.985-3.025c1.419-1.752 3.053-2.613 4.586-2.428 1.532.184 2.892 1.4 3.84 3.42a30.9 30.9 0 0 1 2.508 16.61c-.828 7.838-2.06 15.495-3.04 21.291-.936 5.531-3.33 11.055-7.116 16.419-3.485 4.937-8.624 8.415-15.71 10.632-13.059 4.098-25.267 1.941-37.322-6.588"/><path d="M36.882 48.294c-.188-1.238-1.11-2.398-2.822-3.549l-.138-.092a2353 2353 0 0 1-8.78-5.926c-1.895-1.287-3.11-1.754-4.07-1.558a2.12 2.12 0 0 0-1.372 1.02c-1.166 1.811.044 3.357 2.22 5.12 1.095.889 2.211 1.748 3.503 2.743l1.194.92a29.1 29.1 0 0 1-10.292-2.143c-5.123-2.185-7.95-6.334-8.402-12.331-.506-6.692 2.044-12.896 7.578-18.444 4.827-4.835 10.9-6.967 17.107-6.007a20.17 20.17 0 0 1 14.736 10.698c.54 1.046 1.006 2.16 1.456 3.237.276.66.553 1.322.848 1.974.411.908 1.262 2.797 3.343 2.389 1.62-.319 2.44-1.51 2.508-3.646a8.3 8.3 0 0 0-.132-1.744c-1.086-6.032-4.991-11.74-10.712-15.66C38.933 1.375 32.209-.2 26.197.968c-12.3 2.38-20.465 10.135-24.27 23.046-1.95 6.62-1.098 13.48 2.337 18.824 3.482 5.417 9.161 8.826 16.422 9.86l5.232.741q-.662.74-1.274 1.417c-1.142 1.269-2.128 2.363-3.11 3.51-1.944 2.268-2.428 4.388-1.256 5.533.498.47 1.162.724 1.846.707 1.073 0 2.383-.538 3.723-1.898a143 143 0 0 0 9.7-10.741c1.07-1.33 1.508-2.533 1.335-3.673"/></g><defs><clipPath id="a"><path fill="#fff" d="M.66.447h141.113V141.56H.66z"/></clipPath></defs></svg>
